<?xml version="1.0" encoding="UTF-8"?>
<map version="1.11" tiledversion="1.12.2" orientation="orthogonal" renderorder="right-down" width="20" height="50" tilewidth="40" tileheight="40" infinite="0" nextlayerid="16" nextobjectid="51">
 <editorsettings>
  <export target="data.lua" format="lua"/>
 </editorsettings>
 <properties>
  <property name="border" value="church_b"/>
  <property name="music" value="second_church"/>
 </properties>
 <tileset firstgid="1" source="../../../tilesets/bg_dw_church_2_tileset.tsx"/>
 <tileset firstgid="199" source="../../../tilesets/bg_dw_dither_overlay_tileset.tsx"/>
 <tileset firstgid="245" source="../../../tilesets/bg_dw_library_tileset_new.tsx"/>
 <tileset firstgid="1075" source="../../../tilesets/longslides.tsx"/>
 <tileset firstgid="1129" source="../../../tilesets/fast_travel_doors.tsx"/>
 <tileset firstgid="1139" source="../../../tilesets/church_objects.tsx"/>
 <objectgroup id="15" name="objects_bg_2" parallaxx="0.6" parallaxy="0.45"/>
 <objectgroup id="10" name="objects_bg" parallaxx="0.7" parallaxy="0.4">
  <object id="32" gid="1143" x="280" y="1200" width="640" height="1600"/>
  <object id="50" gid="1140" x="654" y="1232" width="200" height="1240"/>
 </objectgroup>
 <objectgroup id="14" name="objects_bg_high" parallaxx="0.9" parallaxy="0.9">
  <object id="40" gid="1231" x="620" y="2120" width="400" height="578"/>
  <object id="41" gid="1231" x="220" y="2120" width="400" height="578"/>
  <object id="42" gid="1231" x="-580" y="2120" width="400" height="578"/>
  <object id="43" gid="1231" x="-180" y="2120" width="400" height="578"/>
 </objectgroup>
 <objectgroup id="8" name="objects_osc">
  <object id="19" name="texturescroller" x="80" y="0">
   <properties>
    <property name="base_tex" value="backgrounds/glow_purple_tile_oscillate"/>
    <property name="scroll_tex" value="backgrounds/perlin_noise_purple_looping"/>
    <property name="type" value="library"/>
   </properties>
   <point/>
  </object>
  <object id="20" name="texturescroller" x="120" y="0">
   <properties>
    <property name="type" value="hsv"/>
   </properties>
   <point/>
  </object>
  <object id="30" name="tile_oscillate" x="160" y="320" width="560" height="200"/>
 </objectgroup>
 <layer id="1" name="Tile Layer 1" width="20" height="50">
  <data encoding="csv">
0,0,0,0,0,0,0,0,0,0,0,0,0,0,0,0,0,0,0,0,
0,0,0,0,0,0,0,0,0,0,0,0,0,0,0,0,0,0,0,0,
0,0,0,0,0,0,0,0,0,0,0,0,0,0,0,0,0,0,0,0,
0,0,0,0,0,0,0,0,0,0,0,0,0,0,0,0,0,0,0,0,
0,0,0,0,0,0,0,0,0,0,0,0,0,0,0,0,0,0,0,0,
0,0,0,0,0,0,0,0,0,0,0,0,0,0,0,0,0,0,0,0,
0,0,0,0,0,0,0,0,0,0,0,0,0,0,0,0,0,0,0,0,
0,0,0,0,0,0,0,0,0,0,0,0,0,0,0,0,0,0,0,0,
10,10,10,10,10,34,2147483653,2147483683,2147483682,132,133,134,135,34,35,5,10,10,0,0,
10,10,10,10,19,43,2147483672,2147483692,2147483691,141,142,143,144,43,44,24,45,10,0,0,
10,10,10,10,10,52,2147483701,2147483701,2147483700,150,151,152,153,52,53,53,54,10,0,0,
28,28,28,28,10,10,7,8,9,159,160,161,162,7,8,9,10,10,0,0,
131,131,131,131,10,10,16,17,18,7,7,7,7,16,17,18,10,10,0,0,
0,0,0,0,28,28,28,0,0,248,248,248,248,0,0,28,28,28,0,0,
0,0,0,0,131,131,131,0,0,258,258,258,258,0,0,131,131,131,0,0,
0,0,0,0,0,0,0,0,0,268,268,268,268,0,0,0,0,0,0,0,
0,0,0,0,0,0,0,0,0,0,0,0,0,0,0,0,0,0,0,0,
0,0,0,0,0,0,0,0,0,0,0,0,0,0,0,0,0,0,0,0,
0,0,0,0,0,0,0,0,0,0,0,0,0,0,0,0,0,0,0,0,
0,0,0,0,0,0,0,0,0,0,0,0,0,0,0,0,0,0,0,0,
0,0,0,0,0,0,0,0,0,0,0,0,0,0,0,0,0,0,0,0,
0,0,0,0,0,0,0,0,0,0,0,0,0,0,0,0,0,0,0,0,
0,0,0,0,0,0,0,0,0,0,0,0,0,0,0,0,0,0,0,0,
0,0,0,0,0,0,0,0,0,0,0,0,0,0,0,0,0,0,0,0,
0,0,0,0,0,0,0,0,0,0,0,0,0,0,0,0,0,0,0,0,
0,0,0,0,0,0,0,0,0,0,0,0,0,0,0,0,0,0,0,0,
0,0,0,0,0,0,0,0,0,0,0,0,0,0,0,0,0,0,0,0,
0,0,0,0,0,0,0,0,0,0,0,0,0,0,0,0,0,0,0,0,
0,0,0,0,0,0,0,0,0,0,0,0,0,0,0,0,0,0,0,0,
0,0,0,0,0,0,0,0,0,0,0,0,0,0,0,0,0,0,0,0,
0,0,0,0,0,0,0,0,0,0,0,0,0,0,0,0,0,0,0,0,
0,0,0,0,0,0,0,0,0,0,0,0,0,0,0,0,0,0,0,0,
0,0,0,0,0,0,0,0,0,0,0,0,0,0,0,0,0,0,0,0,
0,0,0,0,0,0,0,0,0,0,0,0,0,0,0,0,0,0,0,0,
0,0,0,0,0,0,0,0,0,0,0,0,0,0,0,0,0,0,0,0,
0,0,0,0,0,0,0,0,0,0,0,0,0,0,0,0,0,0,0,0,
0,0,0,0,0,0,0,0,0,0,0,0,0,0,0,0,0,0,0,0,
0,0,0,0,0,0,0,0,0,0,0,0,0,0,0,0,0,0,0,0,
0,0,0,0,0,0,0,0,0,0,0,0,0,0,0,0,0,0,0,0,
0,0,0,0,0,0,0,0,0,0,0,0,0,0,0,0,0,0,0,0,
0,0,0,0,0,0,0,0,0,0,0,0,0,0,0,0,0,0,0,0,
0,0,0,0,0,0,0,0,0,0,0,0,0,0,0,0,0,0,0,0,
0,0,0,0,0,0,0,0,246,0,248,0,246,0,0,0,0,0,0,0,
0,0,0,0,0,0,0,0,256,0,258,0,256,0,248,0,0,0,0,0,
0,0,0,0,0,0,0,246,266,248,268,246,266,247,258,0,0,0,0,0,
0,0,0,0,0,0,0,256,246,258,247,256,248,257,268,0,0,0,0,0,
0,0,0,0,0,0,0,266,256,268,257,266,258,267,246,0,0,0,0,0,
0,0,0,0,0,0,0,845,266,845,267,845,268,845,256,0,0,0,0,0,
0,0,0,0,0,0,0,338,339,339,339,339,339,339,340,0,0,0,0,0,
0,0,0,0,0,0,0,348,349,349,349,349,349,349,350,0,0,0,0,0
</data>
 </layer>
 <layer id="2" name="Tile Layer 2" width="20" height="50">
  <data encoding="csv">
0,0,0,0,0,0,0,0,0,0,0,0,0,0,0,0,0,0,0,0,
0,0,0,0,0,0,0,0,0,0,0,0,0,0,0,0,0,0,0,0,
0,0,0,0,0,0,0,0,0,0,0,0,0,0,0,0,0,0,0,0,
0,0,0,0,0,0,0,0,0,0,0,0,0,0,0,0,0,0,0,0,
0,0,0,0,0,0,0,0,0,0,0,0,0,0,0,0,0,0,0,0,
0,0,0,0,0,0,0,0,0,0,0,0,0,0,0,0,0,0,0,0,
0,0,0,0,0,0,0,0,0,0,0,0,0,0,0,0,0,0,0,0,
0,0,0,0,0,0,0,0,0,0,0,0,0,0,0,0,0,0,0,0,
0,0,0,0,0,0,0,0,0,0,0,0,0,0,0,0,0,0,0,0,
0,0,0,0,0,0,0,0,0,0,0,0,0,0,0,0,0,0,0,0,
0,0,0,0,0,0,0,0,0,0,0,0,0,0,0,0,0,0,0,0,
0,0,0,0,0,0,0,0,0,0,0,0,0,0,0,0,0,0,0,0,
208,208,208,208,0,0,0,0,0,0,0,0,0,0,0,0,0,0,0,0,
0,0,0,0,0,0,0,651,653,1078,1079,1079,1080,651,653,0,0,0,0,0,
0,0,0,0,208,208,208,661,663,1087,1088,1088,1089,661,663,208,208,208,0,0,
0,0,0,0,0,0,0,671,673,1096,1097,1097,1098,671,673,0,0,0,0,0,
0,0,0,0,0,0,0,671,673,1096,1097,1097,1098,671,673,0,0,0,0,0,
0,0,0,0,0,0,0,671,673,1096,1097,1097,1098,671,673,0,0,0,0,0,
0,0,0,0,0,0,0,671,673,1096,1097,1097,1098,671,673,0,0,0,0,0,
0,0,0,0,0,0,0,671,673,1096,1097,1097,1098,671,673,0,0,0,0,0,
0,0,0,0,0,0,0,671,673,1096,1097,1097,1098,671,673,0,0,0,0,0,
0,0,0,0,0,0,0,671,673,1096,1097,1097,1098,671,673,0,0,0,0,0,
0,0,0,0,0,0,0,671,673,1096,1097,1097,1098,671,673,0,0,0,0,0,
0,0,0,0,0,0,0,671,673,1096,1097,1097,1098,671,673,0,0,0,0,0,
0,0,0,0,0,0,0,671,673,1096,1097,1097,1098,671,673,0,0,0,0,0,
0,0,0,0,0,0,0,671,673,1096,1097,1097,1098,671,673,0,0,0,0,0,
0,0,0,0,0,0,0,671,673,1096,1097,1097,1098,671,673,0,0,0,0,0,
0,0,0,0,0,0,0,671,673,1096,1097,1097,1098,671,673,0,0,0,0,0,
0,0,0,0,0,0,0,671,673,1096,1097,1097,1098,671,673,0,0,0,0,0,
0,0,0,0,0,0,0,671,673,1096,1097,1097,1098,671,673,0,0,0,0,0,
0,0,0,0,0,0,0,671,673,1096,1097,1097,1098,671,673,0,0,0,0,0,
0,0,0,0,0,0,0,671,673,1096,1097,1097,1098,671,673,0,0,0,0,0,
0,0,0,0,0,0,0,671,673,1096,1097,1097,1098,671,673,0,0,0,0,0,
0,0,0,0,0,0,0,671,673,1096,1097,1097,1098,671,673,0,0,0,0,0,
0,0,0,0,0,0,0,671,673,1096,1097,1097,1098,671,673,0,0,0,0,0,
0,0,0,0,0,0,0,671,673,1096,1097,1097,1098,671,673,0,0,0,0,0,
0,0,0,0,0,0,0,671,673,1096,1097,1097,1098,671,673,0,0,0,0,0,
0,0,0,0,0,0,0,671,673,1096,1097,1097,1098,671,673,0,0,0,0,0,
0,0,0,0,0,0,0,671,673,1096,1097,1097,1098,671,673,0,0,0,0,0,
0,0,0,0,0,0,0,671,673,1096,1097,1097,1098,671,673,0,0,0,0,0,
0,0,0,0,0,0,0,671,673,1096,1097,1097,1098,671,673,0,0,0,0,0,
0,0,0,0,0,0,0,671,673,1096,1097,1097,1098,671,673,0,0,0,0,0,
0,0,0,0,0,0,0,671,673,1096,1097,1097,1098,671,673,0,0,0,0,0,
0,0,0,0,0,0,0,351,353,1114,1115,1115,1116,351,353,0,0,0,0,0,
0,0,0,0,0,0,0,0,0,1123,1124,1124,1125,0,0,0,0,0,0,0,
0,0,0,0,0,0,0,0,0,0,0,0,0,0,0,0,0,0,0,0,
0,0,0,0,0,0,0,0,0,0,0,0,0,0,0,0,0,0,0,0,
0,0,0,0,0,0,0,0,0,0,0,0,0,0,0,0,0,0,0,0,
0,0,0,0,0,0,0,0,0,0,0,0,0,0,0,0,0,0,0,0,
0,0,0,0,0,0,0,208,208,208,208,208,208,208,208,0,0,0,0,0
</data>
 </layer>
 <objectgroup id="3" name="objects_party">
  <object id="9" name="script" x="280" y="1800" width="320" height="40">
   <properties>
    <property name="cutscene" value="events.travel_unlock"/>
   </properties>
  </object>
  <object id="15" name="transition" x="-40" y="320" width="40" height="120">
   <properties>
    <property name="map" value="1_2nd_sanctuary/second_sanctum_12"/>
    <property name="marker" value="entry2"/>
   </properties>
  </object>
  <object id="16" name="slidearea" x="360" y="520" width="160" height="1240"/>
  <object id="22" name="window_glow" x="280" y="220">
   <properties>
    <property name="big" value="true"/>
   </properties>
   <point/>
  </object>
  <object id="23" name="window_glow" x="600" y="220">
   <properties>
    <property name="big" value="true"/>
   </properties>
   <point/>
  </object>
  <object id="28" gid="1138" x="340" y="320" width="200" height="200"/>
  <object id="29" name="interactable" x="360" y="280" width="160" height="40">
   <properties>
    <property name="text1_1" value="* (It is a massive door with veins across it.)"/>
    <property name="text1_2">* (...[wait:5]Well, [wait:5]it's just that.)[wait:10]
* (The developers haven't added anything yet.)</property>
    <property name="text2_1" value="* (Useless door.)"/>
   </properties>
  </object>
  <object id="47" name="cameratarget" x="360" y="640" width="160" height="1080">
   <properties>
    <property name="lockx" type="bool" value="true"/>
    <property name="locky" type="bool" value="false"/>
    <property name="marker" value="targ"/>
    <property name="time" type="float" value="0.5"/>
   </properties>
  </object>
 </objectgroup>
 <objectgroup id="4" name="markers">
  <object id="10" name="kristo" x="408" y="1880">
   <point/>
  </object>
  <object id="11" name="susieto" x="472" y="1880">
   <point/>
  </object>
  <object id="12" name="ralseito" x="534" y="1840">
   <point/>
  </object>
  <object id="13" name="jammto" x="346" y="1840">
   <point/>
  </object>
  <object id="14" name="entry" x="40" y="380">
   <point/>
  </object>
  <object id="24" name="spawn" x="80" y="400">
   <point/>
  </object>
  <object id="45" name="targ" x="440" y="1440">
   <point/>
  </object>
 </objectgroup>
 <objectgroup id="5" name="collision" visible="0" locked="1">
  <object id="1" x="0" y="440" width="160" height="1560"/>
  <object id="2" x="160" y="520" width="120" height="1480"/>
  <object id="3" x="280" y="1920" width="320" height="80"/>
  <object id="4" x="600" y="520" width="200" height="1480"/>
  <object id="5" x="520" y="520" width="80" height="1240"/>
  <object id="6" x="280" y="520" width="80" height="1240"/>
  <object id="7" x="720" y="320" width="80" height="200"/>
  <object id="8" x="0" y="0" width="800" height="320"/>
 </objectgroup>
 <objectgroup id="11" name="objects_over_party" visible="0" parallaxy="1.6">
  <object id="35" gid="1230" x="-890" y="660" width="2880" height="100" rotation="30"/>
  <object id="37" gid="1230" x="1790" y="950" width="2880" height="100" rotation="150"/>
 </objectgroup>
 <objectgroup id="12" name="objects_overer_party" visible="0" parallaxy="2">
  <object id="39" gid="1171" x="1480" y="1560" width="1920" height="200" rotation="180"/>
 </objectgroup>
 <objectgroup id="9" name="objects_darkness">
  <object id="21" name="darkness" x="160" y="0">
   <properties>
    <property name="alpha" type="float" value="0.23"/>
    <property name="highlight" type="bool" value="true"/>
   </properties>
   <point/>
  </object>
 </objectgroup>
 <objectgroup id="7" name="objects_fog">
  <object id="18" name="churchfog" x="40" y="0">
   <point/>
  </object>
 </objectgroup>
 <objectgroup id="6" name="objects_top">
  <object id="17" name="filter" x="0" y="0">
   <properties>
    <property name="type" value="hsv"/>
   </properties>
   <point/>
  </object>
 </objectgroup>
</map>
